!!!COM: Scriabin, Alexander
!!!OTL@@FR: Poème
!!!OTL@@EN: Poem
!!!OPR@@FR: 2 Poèmes
!!!OPR@@EN: 2 Poems
!!!OPS: 71
!!!ONM: 2
!!!ODT: 1914
!!!AGN: Poem
**kern	**kern	**dynam
*staff2	*staff1	*staff1/2
*Ipiano	*Ipiano	*
*clefF4	*clefG2	*
*k[]	*k[]	*
*X:	*X:	*
*M3/4	*M3/4	*
=1	=1	=1
*^	*	*
12D\L	4rc	8r	.
12c	.	.	.
.	.	4ee-X\	.
12f#XJ	.	.	.
12rAA	2b-X/	.	.
12f#\L	.	.	.
.	.	4een\	.
12cJ	.	.	.
12f#\L	.	.	.
12c	.	.	.
.	.	8aa\	.
12DJ	.	.	.
=2	=2	=2	=2
*	*	*^	*
12GG#X\L	4rc	4re	4ree	.
12F#X	.	.	.	.
12cJ	.	.	.	.
.	.	.	8qdd/	.
4rAA	12a/L	4re	4.ddd/	.
.	12f#X	.	.	.
.	[12eJ	.	.	.
4rAA	4e/]	4dd\	.	.
.	.	.	8ddd/	.
=3	=3	=3	=3	=3
*	*^	*	*	*
12D\L	4rc	4rc	4ee-X\	4ddd/	.
12c	.	.	.	.	.
12f#XJ	.	.	.	.	.
12rAA	12ryy	2b-X/	[4een\	4ccc#X/	.
12f#\L	[6f#/	.	.	.	.
[12cJ	.	.	.	.	.
4c\]	12f#/L]	.	12ee\L]	4cccn/	.
.	12fn	.	12ffn	.	.
.	12eJ	.	12ff#XJ	.	.
*	*v	*v	*	*	*
=4	=4	=4	=4	=4
12e-X\L	2a/	2.gg\	2.bbn/	.
12Fn	.	.	.	.
12e-J	.	.	.	.
12a\L	.	.	.	.
12e-	.	.	.	.
12aJ	.	.	.	.
4rAA	12dd-X/L	.	.	.
.	12ddn	.	.	.
.	12ee-XJ	.	.	.
*v	*v	*	*	*
*	*v	*v	*
=5	=5	=5
12r	2.bb\	.
*clefG2	*	*
12a\L	.	.
12ee-XJ	.	.
12aa\L	.	.
12ee-	.	.
12aaJ	.	.
12ddd-X\L	.	.
12dddn	.	.
12eee-XJ	.	.
*clefF4	*	*
=6	=6	=6
*^	*	*
12D\L	4rc	8r	.
12c	.	.	.
.	.	4ee-X\	.
12f#XJ	.	.	.
12rAA	2b-X/	.	.
12f#\L	.	.	.
.	.	4een\	.
12cJ	.	.	.
12f#\L	.	.	.
12c	.	.	.
.	.	8aa\	.
12DJ	.	.	.
=7	=7	=7	=7
*	*	*^	*
12GG#X\L	4rc	8ra	2.ddd/	.
12F#X	.	.	.	.
.	.	4dd 4aa\	.	.
12cJ	.	.	.	.
4rAA	12a/L	.	.	.
.	12f#X	.	.	.
.	.	4dd 4aa\	.	.
.	[12eJ	.	.	.
4rAA	4e/]	.	.	.
.	.	8dd 8aa\	.	.
*	*	*v	*v	*
=8	=8	=8	=8
12D\L	4rc	8r	.
12c	.	.	.
.	.	4ee-X\	.
12f#XJ	.	.	.
12rAA	2b-X/	.	.
12f#\L	.	.	.
.	.	8een\	.
12cJ	.	.	.
12f#\L	.	8aa\L	.
12c	.	.	.
.	.	8dddJ	.
12DJ	.	.	.
=9	=9	=9	=9
*	*	*^	*
12BB\L	4rc	8ra	2.fffn/	.
12A	.	.	.	.
.	.	4ffn 4ccc\	.	.
12d#XJ	.	.	.	.
4rAA	12cc/L	.	.	.
.	12a	.	.	.
.	.	4ff 4ccc\	.	.
.	[12gJ	.	.	.
4rAA	4g/]	.	.	.
.	.	8ff 8ccc\	.	.
=10	=10	=10	=10	=10
4rAA	12g-X/L	8ra	2.ggg-X/	.
.	12e-X	.	.	.
.	.	4gg-X 4ddd-X\	.	.
.	[12d-XJ	.	.	.
12A\L	2d-/]	.	.	.
12E-X	.	.	.	.
.	.	4gg- 4ddd-\	.	.
12FFJ	.	.	.	.
4rC	.	.	.	.
.	.	8gg- 8ddd-\	.	.
=11	=11	=11	=11	=11
4rAA	12c/L	8ra	2.gggn/	.
.	12A	.	.	.
.	.	4ggn 4ccc\	.	.
.	[12GnJ	.	.	.
12D#X\L	2G/]	.	.	.
12AA	.	.	.	.
.	.	4gg 4ccc\	.	.
12BBBJ	.	.	.	.
4rEE	.	.	.	.
.	.	8gg 8ccc\	.	.
=12	=12	=12	=12	=12
12EEE#XL 12EE#X\	4rc	8ra	8ryy	.
12D#X	.	.	.	.
.	.	[8gg#X\	[8ggg#X/	.
12AJ	.	.	.	.
12rAA	2c#X 2cc#X/	4.gg#\]	4.ggg#/]	.
12a\L	.	.	.	.
12d#XJ	.	.	.	.
12A\L	.	.	.	.
12D#	.	.	.	.
.	.	8ggn\	8gggn/	.
12EE#J	.	.	.	.
*	*	*v	*v	*
=13	=13	=13	=13
12BB\L	4rc	8r	.
12E#X	.	.	.
.	.	[8gg [8ggg\	.
12d#XJ	.	.	.
12rAA	2cn 2ccn/	12ggL] 12ggg\]	.
12a\L	.	12dd#X 12ddd#X	.
12d#XJ	.	12ccJ 12ccc	.
4rC	.	6a 6aa\	.
.	.	12g 12gg\	.
=14	=14	=14	=14
12EE#X\L	4rc	8r	.
12D#X	.	.	.
.	.	[8gg#X\	.
12AJ	.	.	.
12rAA	2c#X 2cc#X/	4.gg#\]	.
12a\L	.	.	.
12d#XJ	.	.	.
12A\L	.	.	.
12D#	.	.	.
.	.	8ggn\	.
12EE#J	.	.	.
=15	=15	=15	=15
12BB\L	4rc	8r	.
12E#X	.	.	.
.	.	[8gg\	.
12d#XJ	.	.	.
12rAA	2cn 2ccn/	12gg\L]	.
12a\L	.	12dd#X	.
12d#XJ	.	12ccJ	.
4rC	.	6a/	.
.	.	12g/	.
=16	=16	=16	=16
8EE#X 8BB\	4rc	8A 8d#X 8g#X/	.
32rC	.	[8ggn\	.
32BB\LLL	.	.	.
32E#X	.	.	.
32d#XJJJ	.	.	.
12rAA	2c 2cc/	12gg\L]	.
12a\L	.	12dd#X	.
12d#XJ	.	12ccJ	.
4rC	.	6a/	.
.	.	12gn/	.
=17	=17	=17	=17
8EE#X 8BB\	4rc	8A 8d#X 8g#X/	.
32rC	.	[8bb--\	.
32D-X\LLL	.	.	.
32Gn	.	.	.
32fJJJ	.	.	.
12rAA	2e-- 2ee--/	12bb--\L]	.
12cc-X\L	.	12ff	.
12fJ	.	12ee--J	.
4rC	.	6cc-X\	.
.	.	12b--\	.
=18	=18	=18	=18
8GG 8D-X\	4rc	8c-X 8f 8b-X/	.
32rC	.	[8ddd-X\	.
32BBn\LLL	.	.	.
32F	.	.	.
32e-XJJJ	.	.	.
*clefG2	*	*	*
12rc	2g-X 2gg-X/	12ddd-\L]	.
12ee-X\L	.	12aa	.
12aJ	.	12gg-XJ	.
4r	.	6ee-X\	.
.	.	12dd-X\	.
=19	=19	=19	=19
12F\L	4ra	8r	.
12e-X	.	.	.
.	.	4gg-X\	.
12aJ	.	.	.
12rc	2dd-X/	.	.
12a\L	.	.	.
.	.	4ggn\	.
12e-J	.	.	.
12a\L	.	.	.
12e-	.	.	.
.	.	8ccc\	.
12FJ	.	.	.
=20	=20	=20	=20
*	*	*^	*
12BB\L	4rcc	4rc	4ree	.
12A	.	.	.	.
12e-XJ	.	.	.	.
.	.	.	8qff/	.
4rc	12cc/L	4rc	8fff/L	.
.	12a	.	.	.
.	.	.	[8fffJ	.
.	[12gJ	.	.	.
4rc	4g/]	4ff\	16fff/KL]	.
.	.	.	8fff	.
.	.	.	16fffJk	.
*v	*v	*	*	*
=21	=21	=21	=21
*^	*	*	*
*	*^	*	*	*
12F\L	4ryy	4ree	4gg-X\	4fff/	.
12e-X	.	.	.	.	.
12aJ	.	.	.	.	.
12rc	12ryy	2dd-X/	[4ggn\	4eeen/	.
12a\L	[6a/	.	.	.	.
[12e-J	.	.	.	.	.
4e-\]	12a/L]	.	12gg\L]	4eee-X/	.
.	12a-X	.	12aa-X	.	.
.	12gJ	.	12aanJ	.	.
*	*v	*v	*	*	*
=22	=22	=22	=22	=22
12g-X\L	2cc/	2.bb-X\	2.dddn/	.
12A-X	.	.	.	.
12g-J	.	.	.	.
12cc\L	.	.	.	.
12g-	.	.	.	.
12ccJ	.	.	.	.
4rc	12ff-X/L	.	.	.
.	12ffn	.	.	.
.	12gg-XJ	.	.	.
*v	*v	*	*	*
*	*v	*v	*
=23	=23	=23
12r	2.ddd\	.
12cc\L	.	.
12gg-XJ	.	.
12ccc\L	.	.
12gg-	.	.
12cccJ	.	.
12fff-X\L	.	.
12fffn	.	.
12ggg-XJ	.	.
=24	=24	=24
*^	*	*
12F\L	4rcc	8r	.
12e-X	.	.	.
.	.	4gg-X\	.
12aJ	.	.	.
12rf	2dd-X/	.	.
12a\L	.	.	.
.	.	4ggn\	.
12e-J	.	.	.
12a\L	.	.	.
12e-	.	.	.
.	.	8ccc\	.
12FJ	.	.	.
=25	=25	=25	=25
*	*	*^	*
12BB\L	4rcc	8ra	2.fff/	.
12A	.	.	.	.
.	.	4ff 4ccc\	.	.
12e-XJ	.	.	.	.
4rc	12cc/L	.	.	.
.	12a	.	.	.
.	.	4ff 4ccc\	.	.
.	[12gJ	.	.	.
4rc	4g/]	.	.	.
.	.	8ff 8ccc\	.	.
*	*	*v	*v	*
=26	=26	=26	=26
12F\L	4rcc	8r	.
12e-X	.	.	.
.	.	4gg-X\	.
12aJ	.	.	.
12rc	2dd-X/	.	.
12a\L	.	.	.
.	.	8ggn\	.
12e-J	.	.	.
12a\L	.	8ccc\L	.
12e-	.	.	.
.	.	8fffJ	.
12FJ	.	.	.
=27	=27	=27	=27
*	*	*^	*
12D\L	4rcc	8ra	2.aaa-X/	.
12c	.	.	.	.
.	.	4aa-X 4eee-X\	.	.
12f#XJ	.	.	.	.
4rc	12ee-X/L	.	.	.
.	12cc	.	.	.
.	.	4aa- 4eee-\	.	.
.	[12b-XJ	.	.	.
4rc	4b-/]	.	.	.
.	.	8aa- 8eee-\	.	.
*clefF4	*	*	*	*
=28	=28	=28	=28	=28
4rAA	12a/L	8ra	2.aaan/	.
.	12f#X	.	.	.
.	.	4aan 4eeen\	.	.
.	[12enJ	.	.	.
12B#X\L	2e/]	.	.	.
12F#X	.	.	.	.
.	.	4aa 4eee\	.	.
12GG#XJ	.	.	.	.
4rAA	.	.	.	.
.	.	8aa 8eee\	.	.
=29	=29	=29	=29	=29
4rAA	12e-X/L	8ra	2.bbb-X/	.
.	12c	.	.	.
.	.	4bb-X 4eee-X\	.	.
.	[12B-XJ	.	.	.
12F#X\L	2B-/]	.	.	.
12C	.	.	.	.
.	.	4bb- 4eee-\	.	.
12DDJ	.	.	.	.
4rAA	.	.	.	.
.	.	8bb- 8eee-\	.	.
=30	=30	=30	=30	=30
12GGG#XL 12GG#X\	4ryy	8rcc	8ryy	.
12F#X	.	.	.	.
.	.	[8bbn\	[8bbbn/	.
12cJ	.	.	.	.
12rC	2en 2een/	4.bb\]	4.bbb/]	.
12cc\L	.	.	.	.
12f#XJ	.	.	.	.
12c\L	.	.	.	.
12F#	.	.	.	.
.	.	8bb-X\	8bbb-X/	.
12GG#J	.	.	.	.
*	*	*v	*v	*
=31	=31	=31	=31
12D\L	4ryy	8r	.
12G#X	.	.	.
.	.	[8bb-X [8bbb-X\	.
12f#XJ	.	.	.
12rAA	2e-X 2ee-X/	12bb-L] 12bbb-\]	.
12cc\L	.	12ff#X 12fff#X	.
12f#XJ	.	12ee-XJ 12eee-X	.
4rC	.	6cc 6ccc/	.
.	.	12b-X 12bb-/	.
=32	=32	=32	=32
12GG#X\L	4ryy	8r	.
12F#X	.	.	.
.	.	[8bbn\	.
12cJ	.	.	.
12rAA	2en 2een/	4.bb\]	.
12cc\L	.	.	.
12f#XJ	.	.	.
12c\L	.	.	.
12F#	.	.	.
.	.	8bb-X\	.
12GG#J	.	.	.
=33	=33	=33	=33
12D\L	4ryy	8r	.
12G#X	.	.	.
.	.	[8bb-X\	.
12f#XJ	.	.	.
12rAA	2e-X 2ee-X/	12bb-\L]	.
12cc\L	.	12ff#X	.
12f#XJ	.	12ee-XJ	.
4rC	.	6cc\	.
.	.	12b-X\	.
=34	=34	=34	=34
8GG#X 8D/	4ryy	8c 8f#X 8bn/	.
32rC	.	[8bb-X\	.
32D\LLL	.	.	.
32G#X	.	.	.
32f#XJJJ	.	.	.
12rAA	2e-X 2ee-X/	12bb-\L]	.
12cc\L	.	12ff#X	.
12f#XJ	.	12ee-XJ	.
4rC	.	6cc\	.
.	.	12b-X\	.
=35	=35	=35	=35
8GG#X 8D/	4ryy	8c 8f#X 8bn/	.
32rC	.	[8ccc\	.
32En\LLL	.	.	.
32A#X	.	.	.
32g#XJJJ	.	.	.
*clefG2	*	*	*
12rc	2fn 2ffn/	12ccc\L]	.
12dd\L	.	12gg#X	.
12g#XJ	.	12ffJ	.
4rc	.	6dd\	.
.	.	12cc\	.
*clefF4	*	*	*
=36	=36	=36	=36
8AA#X 8E/	4ryy	8d 8g#X 8cc#X/	.
*clefG2	*	*	*
32ra	.	[8eee\	.
32D\LLL	.	.	.
32G#X	.	.	.
32f#XJJJ	.	.	.
12rc	2an 2aan/	12eee\L]	.
12ff#X\L	.	12cccn	.
12ccJ	.	12aaJ	.
4rc	.	6ff#X\	.
.	.	12ee\	.
*v	*v	*	*
*clefF4	*	*
=37	=37	=37
*	*^	*
4r	4r	4ryy	.
4r	4r	4ryy	.
4GG#X 4D 4c\	20ee\LL	4ee/	.
.	20cc	.	.
.	20a	.	.
.	20f#X	.	.
.	20eJJ	.	.
*	*v	*v	*
=38	=38	=38
*^	*	*
*	*^	*	*
*	*	*^	*	*
*	*	*	*^	*	*
*	*	*	*	*^	*	*
20e-\LL	20ryy	20ryy	20ryy	20ryy	[[4e-/	2.f# 2.cc 2.ffn\	.
20c	20ryy	20ryy	20ryy	[[5c/	.	.	.
20B-	20ryy	20ryy	[[10.B-/	.	.	.	.
20F#	20ryy	[[10F#/	.	.	.	.	.
[20DDJJ	20DD/	.	.	.	.	.	.
2DD\]	2ryy	2F#\]	2B-\]	2c\]	2e-\]	.	.
*	*	*	*	*v	*v	*	*
*	*	*	*v	*v	*	*
*	*	*v	*v	*	*
*	*v	*v	*	*
*v	*v	*	*
==	==	==
*-	*-	*-
!!!system-decoration: {(*)}
!!!ENC: Bryan Jacob Bell
!!!END: November 2021 to April 2022
!!!PED: Günter Philipp
!!!PTL: Ausgewählte Klavierwerke (Edition Peters)
